svgs/sharp-solid/sun-haze.svg

<svg xmlns="http://www.w3.org/2000/svg" viewBox="0 0 640 512"><!--! Font Awesome Pro 6.4.2 by @fontawesome - https://fontawesome.com License - https://fontawesome.com/license (Commercial License) Copyright 2023 Fonticons, Inc. --><path d="M320 73.1L214 0 190.7 126.7 64 150l73.1 106 0 0H192v0c0-70.7 57.3-128 128-128s128 57.3 128 128v0h54.9l0 0L576 150 449.3 126.7 426 0 320 73.1zM224 256v0H416v0c0-53-43-96-96-96s-96 43-96 96zm392 32H504 480v48h24H616h24V288H616zm-208 0H88 64v48H88 408h24V288H408zm144 88H24 0v48H24 552h24V376H552zM64 464v48H88 200h24V464H200 88 64zm208 0v48h24H616h24V464H616 296 272z"/></svg>

<svg xmlns="http://www.w3.org/2000/svg" viewBox="0 0 640 512"><!--! Font Awesome Pro 6.6.0 by @fontawesome - https://fontawesome.com License - https://fontawesome.com/license (Commercial License) Copyright 2024 Fonticons, Inc. --><path d="M320 73.1L214 0 190.7 126.7 64 150l73.1 106s0 0 0 0l54.9 0s0 0 0 0c0-70.7 57.3-128 128-128s128 57.3 128 128c0 0 0 0 0 0l54.9 0s0 0 0 0L576 150 449.3 126.7 426 0 320 73.1zM224 256s0 0 0 0l192 0s0 0 0 0c0-53-43-96-96-96s-96 43-96 96zm392 32l-112 0-24 0 0 48 24 0 112 0 24 0 0-48-24 0zm-208 0L88 288l-24 0 0 48 24 0 320 0 24 0 0-48-24 0zm144 88L24 376 0 376l0 48 24 0 528 0 24 0 0-48-24 0zM64 464l0 48 24 0 112 0 24 0 0-48-24 0L88 464l-24 0zm208 0l0 48 24 0 320 0 24 0 0-48-24 0-320 0-24 0z"/></svg>
